X:32
T:La marche de carnaval de St Aubin
R:
S:
N:
A:Champagne
G:
O:France
Z:<anamnese@laposte.net>
M:2/4
L:1/8
Q:1/4=135
K:D
z2 d/e/ | (d2 A)A/B/ | (A2 E)E/F/ | GA Bc | (f2 e) d/e/ |
          (d2 A)A/B/ | (A2 E)E/F/ | G>A f>e | d4 | A4 | A>d c>e | B4-|B2 e>d | c2>B2 |
           Ac d>e | f4 | A4-|Ad c>e | B4-|B2 e>d | c2>B2 | Ac f>e | d2 z2 ||
